src/sources/forus-platform/resources/_platform-common/assets/img/menu/icon-implementation-active.svg

<svg width="30" height="30" viewBox="0 0 30 30" fill="none" xmlns="http://www.w3.org/2000/svg">
<path d="M10 25C10.9205 25 11.6667 24.2538 11.6667 23.3333C11.6667 22.4128 10.9205 21.6666 10 21.6666C9.07952 21.6666 8.33333 22.4128 8.33333 23.3333C8.33333 24.2538 9.07952 25 10 25Z" fill="#2987FD"/>
<path d="M20 25C20.9205 25 21.6667 24.2538 21.6667 23.3333C21.6667 22.4128 20.9205 21.6666 20 21.6666C19.0795 21.6666 18.3333 22.4128 18.3333 23.3333C18.3333 24.2538 19.0795 25 20 25Z" fill="#2987FD"/>
<path d="M21.9914 8.33334H21.25C21.0197 8.33334 20.8333 8.51971 20.8333 8.75002V10.4167C20.8333 10.8057 20.6567 11.1654 20.3499 11.4038C20.2336 11.4942 20.1733 11.639 20.192 11.7851C20.2409 12.1704 20.1107 12.5493 19.8356 12.8243L18.6572 14.0027C18.3862 14.2745 18.011 14.4117 17.6196 14.3592C17.4715 14.34 17.3274 14.4002 17.2371 14.5166C16.9979 14.8238 16.6382 15 16.25 15H14.5833C14.1951 15 13.8354 14.8238 13.5962 14.5166C13.505 14.4002 13.3593 14.3404 13.2137 14.3592C12.823 14.4112 12.4479 14.2745 12.176 14.0027L10.9976 12.8243C10.7226 12.5492 10.5924 12.1704 10.6412 11.7851C10.6599 11.639 10.5997 11.4942 10.4833 11.4038C10.1765 11.1654 9.99991 10.8057 9.99991 10.4167V8.75002C9.99991 8.51971 9.81355 8.33334 9.58324 8.33334H8.68246L8.34398 7.25139C8.23515 6.9035 7.91289 6.66666 7.54836 6.66666H5.41668C5.18656 6.66666 5 6.85319 5 7.08334V7.91666C5 8.14678 5.18656 8.33334 5.41668 8.33334H6.93605L9.57007 16.7516L8.33335 17.9883C7.85484 18.4664 7.71324 19.1793 7.97203 19.8043C8.23082 20.4293 8.83546 20.8334 9.51175 20.8334H21.25C21.4801 20.8334 21.6667 20.6468 21.6667 20.4167V19.5834C21.6667 19.3532 21.4801 19.1667 21.25 19.1667H9.51175L11.1784 17.5H18.7899C19.4328 17.5 20.0252 17.1244 20.2978 16.543L23.2063 10.3642C23.2893 10.1864 23.3333 9.98904 23.3333 9.7933V9.67529C23.3333 8.93518 22.7311 8.33334 21.9914 8.33334Z" fill="#004195"/>
<path d="M11.1491 10.8207L11.9475 11.0205L11.5243 11.7261C11.4259 11.8901 11.4519 12.1 11.587 12.2351L12.7654 13.4135C12.9013 13.5498 13.1121 13.5738 13.2748 13.4762L13.9796 13.053L14.179 13.8514C14.2254 14.0365 14.3922 14.1667 14.5834 14.1667H16.2501C16.4414 14.1667 16.6082 14.0365 16.6546 13.8514L16.8539 13.053L17.5587 13.4762C17.7223 13.5738 17.9314 13.5486 18.0682 13.4135L19.2466 12.2351C19.3816 12.1 19.4077 11.8901 19.3092 11.7261L18.886 11.0205L19.6844 10.8207C19.8699 10.7743 20.0001 10.6079 20.0001 10.4166V8.74999C20.0001 8.55875 19.8699 8.39234 19.6844 8.34593L18.886 8.14613L19.3092 7.44054C19.4077 7.27656 19.3816 7.0666 19.2466 6.93152L18.0682 5.75312C17.9314 5.6168 17.7223 5.59281 17.5587 5.69047L16.8539 6.11367L16.6545 5.31531C16.6081 5.1302 16.4413 5 16.25 5H14.5834C14.3921 5 14.2253 5.1302 14.1789 5.31535L13.9795 6.11371L13.2748 5.69055C13.112 5.59289 12.9012 5.61769 12.7653 5.7532L11.5869 6.9316C11.4518 7.06668 11.4258 7.27664 11.5243 7.44062L11.9474 8.14621L11.1491 8.34601C10.9635 8.39242 10.8333 8.55882 10.8333 8.75007V10.4168C10.8334 10.6079 10.9636 10.7743 11.1491 10.8207ZM15.4167 7.5C16.5658 7.5 17.5 8.43464 17.5 9.58331C17.5 10.732 16.5658 11.6667 15.4167 11.6667C14.2676 11.6667 13.3334 10.732 13.3334 9.58335C13.3334 8.43468 14.2676 7.5 15.4167 7.5Z" fill="#2987FD"/>
</svg>

<svg width="30" height="30" fill="none" xmlns="http://www.w3.org/2000/svg"><path d="M10 25a1.667 1.667 0 100-3.333A1.667 1.667 0 0010 25zM20 25a1.667 1.667 0 100-3.333A1.667 1.667 0 0020 25z" fill="#2987FD"/><path d="M21.991 8.333h-.741a.416.416 0 00-.417.417v1.667c0 .389-.176.748-.483.987a.416.416 0 00-.158.381 1.24 1.24 0 01-.356 1.04l-1.179 1.178a1.225 1.225 0 01-1.037.356.415.415 0 00-.383.158c-.24.307-.599.483-.987.483h-1.667c-.388 0-.748-.176-.987-.483a.419.419 0 00-.382-.158 1.228 1.228 0 01-1.038-.356l-1.178-1.179a1.24 1.24 0 01-.357-1.039.416.416 0 00-.158-.381 1.242 1.242 0 01-.483-.987V8.75a.416.416 0 00-.417-.417h-.9l-.339-1.082a.834.834 0 00-.796-.584H5.417A.417.417 0 005 7.083v.834c0 .23.187.416.417.416h1.519l2.634 8.419-1.237 1.236a1.661 1.661 0 00-.361 1.816c.259.625.863 1.03 1.54 1.03H21.25c.23 0 .417-.187.417-.417v-.834a.417.417 0 00-.417-.416H9.512l1.666-1.667h7.612c.643 0 1.235-.376 1.508-.957l2.908-6.179c.083-.178.127-.375.127-.57v-.119c0-.74-.602-1.342-1.342-1.342z" fill="#004195"/><path d="M11.15 10.82l.797.2-.423.706a.417.417 0 00.063.51l1.178 1.178c.136.136.347.16.51.062l.705-.423.199.798a.417.417 0 00.404.316h1.667c.191 0 .358-.13.405-.316l.199-.798.705.423a.419.419 0 00.51-.063l1.178-1.178a.417.417 0 00.062-.509l-.423-.706.798-.2a.417.417 0 00.316-.403V8.75a.417.417 0 00-.316-.404l-.798-.2.423-.705a.417.417 0 00-.062-.51l-1.179-1.178a.417.417 0 00-.51-.063l-.704.424-.2-.799A.417.417 0 0016.25 5h-1.667a.417.417 0 00-.404.315l-.2.799-.704-.423a.418.418 0 00-.51.062l-1.178 1.179a.417.417 0 00-.063.509l.423.705-.798.2a.417.417 0 00-.316.404v1.667c0 .19.13.357.316.404zm4.267-3.32c1.149 0 2.083.935 2.083 2.083a2.086 2.086 0 01-2.083 2.084 2.086 2.086 0 01-2.084-2.084c0-1.148.935-2.083 2.084-2.083z" fill="#2987FD"/></svg>
